assets/img/braze_icons/headphones-02.svg

<svg fill="none" height="24" viewBox="0 0 24 24" width="24" xmlns="http://www.w3.org/2000/svg"><g fill="#801ed7"><path d="m1 13c0-6.07513 4.92487-11 11-11 6.0751 0 11 4.92487 11 11v4c0 .5523-.4477 1-1 1s-1-.4477-1-1v-4c0-4.97056-4.0294-9-9-9-4.97056 0-9 4.02944-9 9v4c0 .5523-.44772 1-1 1s-1-.4477-1-1z"/><g clip-rule="evenodd" fill-rule="evenodd"><path d="m4 15.5c0-1.933 1.567-3.5 3.5-3.5s3.5 1.567 3.5 3.5v3c0 1.933-1.567 3.5-3.5 3.5s-3.5-1.567-3.5-3.5z"/><path d="m16.5 12c-1.933 0-3.5 1.567-3.5 3.5v3c0 1.933 1.567 3.5 3.5 3.5s3.5-1.567 3.5-3.5v-3c0-1.933-1.567-3.5-3.5-3.5z"/></g></g></svg>

<svg width="24" height="24" viewBox="0 0 24 24" fill="none" xmlns="http://www.w3.org/2000/svg">
<path d="M1 13C1 6.92487 5.92487 2 12 2C18.0751 2 23 6.92487 23 13V17C23 17.5523 22.5523 18 22 18C21.4477 18 21 17.5523 21 17V13C21 8.02944 16.9706 4 12 4C7.02944 4 3 8.02944 3 13V17C3 17.5523 2.55228 18 2 18C1.44772 18 1 17.5523 1 17V13Z" fill="#801ED7"/>
<path fill-rule="evenodd" clip-rule="evenodd" d="M4 15.5C4 13.567 5.567 12 7.5 12C9.433 12 11 13.567 11 15.5V18.5C11 20.433 9.433 22 7.5 22C5.567 22 4 20.433 4 18.5V15.5Z" fill="#801ED7"/>
<path fill-rule="evenodd" clip-rule="evenodd" d="M16.5 12C14.567 12 13 13.567 13 15.5V18.5C13 20.433 14.567 22 16.5 22C18.433 22 20 20.433 20 18.5V15.5C20 13.567 18.433 12 16.5 12Z" fill="#801ED7"/>
</svg>
